X: 4322
T: EACH NEW SUNDAY BRINGS. (Faust.)
%R: march, reel
B: James Kerr "Merry Melodies" v.4 p.34 #322
Z: 2016 John Chambers <jc:trillian.mit.edu>
M: 2/4
L: 1/16
K: F
[|\
f2e2d2c2 | e2dc B4 | A2FA d4 | G2EG c4 |\
f2e2d2c2 | e2dc B4 | A2(Bc) defg | Te4 {de}f2z2 |]
|:\
A2Ac B4 | =B2Bd c4 | ^c2ce (df)=Bd | ce^GB Acde |\
f2e2d2c2 | e2dc B4  A2(Bc) defg | Te4 {de}f2z2 :|

%%sep 1 1 500
%%sep 1 1 500

